X:4880
T:Es wollt ein Jgerlein jagen dreiviertel Stund...
R:
O:
S:source
B:Frau Nachtigall (Straburg - 1928)
Z:<anamnese@caramail.com> -- http://anamnese.fr.st
N:p.104
M:6/8
L:1/8
Q:1/4=125
K:D
A | "D"A2 A "A7"AB c | "D"d3 A2 A | "G"B2 B dc B | "D"A3 F2 A | "A"A2 G E2 c | "D"d2 ff2 d |
"G"e2e "A7"cB c | "D"d3-d z |: A | "D"AF A AF A | "D"AF A AF A | "D"A2 d "A7"c2 e | "D"d3-d z :|
